X:2469
T:Campbells Are Coming,The. JNu.08
M:6/8
Q:120
S:James Nuttall MS,c1830?,Rossendale,East Lancs.
R:Jig
O:England
A:East Lancashire
Z:Chris Partington
K:G
D|GBe dBG|BcB B2A|GBe dBG|ABAA2B|!
GBe dBG|B2dg2a|bag gfe|dBBB2::!
d|g2g gab|dddd2B|g2g gab|eeee2f|!
gag gfe defg2a|bag gfe|dBBB2:|]


